X: 1
T: Belle Rivi\`ere
C: Eric Favreau
R: jig
Z: 2009 John Chambers <jc:trillian.mit.edu>
N: From a printed transcription by Rachel A., 2009
M: 6/8
L: 1/8
K: D
[| "D"D3  FDF | "D"ABA ABc | "D"d3  ded |"A7"cdc "G"BcB \
|  "G"E2F GFE |"A7"c3- c2B |"A7"AGA BAG | "D"FAd    A3  ||
|| "D"D3  FDF | "D"ABA ABc | "D"d3  ded |"A7"cBA    e3  \
|  "G"BAB e2B | "D"AFA d2B |"A7"ABA GFE | "D"DFA    d2f |]
[| "D"f2e e2d | "D"d3  Ade | "D"fdf fdf | "G"gag    B3  \
|  "G"g3  gfe |"A7"c3  c3B |"A7"AGA BAG | "D"FAd    A2f ||
|| "D"f2e e2d | "D"d3  Ade | "D"fdf fdf | "G"gag    B3  \
|  "G"g3  gfe | "D"a3  a2f |"A7"gec ABc | "D"dAF    D2z |]
%%sep 2 1 500
